!!!OTL: "Frohsinn" I BIN A JUNGS BIABL
!!!ARE: Europa, Mitteleuropa, Oesterreich
!!!SCT: Z1269
!!!YEM: Copyright 1995, estate of Helmut Schaffrath.
**kern
*ICvox
*Ivox
*M3/4
*k[f#]
*G:
=1
{8d
8g
4g
4g
=2
4a
8cc
8ee}
{4cc
=3
8d
8f#
4f#
4f#
=4
4g
8b
8gg}
{4dd
=5
8d
8g
4g
4g
=6
4a
8cc
8ee}
{4cc
=7
8d
8f#
4f#
4f#
=8
2g
4r}
==
!!!AGN: Natur und Welt
!!!ONB: ESAC (Essen Associative Code) Database: ZUCCAL
!!!AMT: simple triple
!!!AIN: vox
!!!EED: Helmut Schaffrath
!!!EEV: 1.0
*-
